X:1
T:Title
%%score 1 2
L:1/8
M:3/4
K:Eb
V:1 treble nm="Bright Piano"
V:2 bass nm="Bright Piano"
V:1
 z2 z2 z[Q:1/4=84] B, | [B,E]3 [EG] [DF]E | [B,D]>[B,E] [DF]2 z B, | [DF]3 [FA] [EG][DF] | %4
 [EG]>[DA] [EB]2 z [FB] | [Ee]3 [Ee] [Ed][Ec] | [EB][FA] [EG]2 z [Ec] | %7
 [EB]>[EB] [DB]>[EB] [FB][B,D] |[M:5/8] [B,E]- [B,E]3 z |] %9
V:2
 z2 z2 z B, | [E,G,]3 [E,B,] [A,B,][G,B,] | [F,A,]>[E,G,] [B,,B,]2 z B, | %3
 [A,B,]3 [D,B,] [E,B,][A,B,] | [G,B,]>[F,A,] [E,G,]2 z [D,F,] | [C,G,]3 [C,G,] [B,,G,][A,,A,] | %6
 [E,G,][D,B,] [E,B,]2 z [A,,A,] | [B,,G,]>[B,,G,] [B,,F,]>[B,,G,] [B,,A,][B,,A,] | %8
[M:5/8] [E,G,]- [E,G,]3 z |] %9

